X: 100
T: Peg O'Brian
C: Irish Polka
L: 1/4
M: C|
K: D
Q: 1/4=116
|: "D" f A B A | f A B A | vd2 ue>uf | e d B A |
f A B A | f A B A | d2 ue>uf | "A" (e d) "D" d2 :|
|: "D" f a f e | e d B A | d2 ue>uf | e d B A |
f a f e | e d A B | d2 ue>uf | "A" (e d) "D" d2 :|

%% transpose -7
